icons/video-download-line.svg

<svg xmlns="http://www.w3.org/2000/svg" width="24" height="24" fill="none"><g clip-path="url(#a)"><g><path fill="#121212" d="M16 4C16.552 4 17 4.448 17 5V9.2L22.213 5.55C22.439 5.392 22.751 5.447 22.91 5.674C22.968 5.758 23 5.858 23 5.96V18.04C23 18.316 22.776 18.54 22.5 18.54C22.397 18.54 22.297 18.508 22.213 18.45L17 14.8V19C17 19.552 16.552 20 16 20H2C1.448 20 1 19.552 1 19V5C1 4.448 1.448 4 2 4H16ZM15 6H3V18H15V6ZM10 8V12H13L9 16L5 12H8V8H10ZM21 8.841L17 11.641V12.359L21 15.159V8.84V8.841Z"/></g></g><defs><clipPath id="a"><rect width="24" height="24" fill="white"/></clipPath></defs></svg>

<svg width="24" height="24" fill="none" xmlns="http://www.w3.org/2000/svg"><g clip-path="url(#a)"><path d="M16 4a1 1 0 0 1 1 1v4.2l5.213-3.65a.5.5 0 0 1 .787.41v12.08a.5.5 0 0 1-.787.41L17 14.8V19a1 1 0 0 1-1 1H2a1 1 0 0 1-1-1V5a1 1 0 0 1 1-1h14Zm-1 2H3v12h12V6Zm-5 2v4h3l-4 4-4-4h3V8h2Zm11 .841-4 2.8v.718l4 2.8V8.84v.001Z" /></g><defs><clipPath id="a"><path fill="#fff" d="M0 0h24v24H0z"/></clipPath></defs></svg>
